X:3
T:Patty Swan. Ru2.003
%%VWML:RutherfordVol2-2249-p2-0
F:http://www.vwml.org/record/RutherfordVol2/2249/p2
B:RUTHERFORD Complete Collection of 200 Country Dances Vol.2; 1759.
Z:vmp.Mike Hicken 2015 www.village-music-project.org.uk
M:C|
Q:1/4=100
K:E
eBgB fBaB|gbdf eB GE|eBgB fBaB|gbBd e2E2 :|
|: GG (TG2 {FG}) Ac e2|GG (TG2{FG}) AFDB,|GG (TG2 {FG}) Acec|BGAF E4:|
|: gbeg fadf|e2 Bg Tf2B2|gbeg fedc|BAGF E4 :|
W:
W: First Cu: hands round with the 2d Wo: .|  the
W: (sa)me with the 2d Man :|  set and change sides
W: the same back again :|.  cross over half
W: (fi)gure .|:  right and left :|
T:Lawsons Frollick. Ru2.004
L:1/8
B:RUTHERFORD Complete Collection of 200 Country Dances Vol.2; 1759.
Z:vmp.Mike Hicken 2015 www.village-music-project.org.uk
M:C
Q:1/4=100
K:D
DFAd fd2f|edcB cA2c|dBAG FAdB|AGFE D4 :|
|: fafd eaec|dfdB cecA|Bcde fdcB|caB^g {g}a4|
DFAd fd2f|edcB cA2c|dBAG FAdB|AGFE D4 :|
W:
W: Cast off and hands round with the 3d. Cu:  .|
W: up again and hands round with the 2d Cu:  :|
W: Gallop down the middle up again foot it at
W: top and cast off .|.
